findly-builder/apps/searchassist/src/assets/icons/onboarding/search-insights.svg

<svg width="36" height="39" viewBox="0 0 36 39" fill="none" xmlns="http://www.w3.org/2000/svg">
<path d="M5.25 10.4316H31.5C32.3288 10.4316 33 11.1432 33 12.0217V32.6929C33 33.5714 32.3288 34.283 31.5 34.283H10.5C7.6005 34.283 5.25 31.7913 5.25 28.7177V10.4316Z" fill="url(#paint0_linear_629_29298)"/>
<path d="M3 8.04651H29.25C30.0788 8.04651 30.75 8.75807 30.75 9.6366V30.3078C30.75 31.1863 30.0788 31.8979 29.25 31.8979H8.25C5.3505 31.8979 3 29.4062 3 26.3325V8.04651Z" fill="url(#paint1_linear_629_29298)"/>
<path d="M8.25 20.7672H9.75C10.5788 20.7672 11.25 20.0557 11.25 19.1771V4.86634C11.25 3.98781 10.5788 3.27625 9.75 3.27625H8.25C5.3505 3.27625 3 5.76792 3 8.84156V26.3326C3 23.2589 5.3505 20.7672 8.25 20.7672Z" fill="url(#paint2_linear_629_29298)"/>
<path d="M13.875 24.7425H28.125C28.332 24.7425 28.5 24.9206 28.5 25.14V25.9351C28.5 26.1545 28.332 26.3326 28.125 26.3326H13.875C13.668 26.3326 13.5 26.1545 13.5 25.9351V25.14C13.5 24.9206 13.668 24.7425 13.875 24.7425Z" fill="#35C1F1"/>
<path d="M14.9114 21.4215L14.3812 20.8594C14.2349 20.7044 14.2349 20.4523 14.3812 20.2973L18.6464 15.7759C18.7927 15.6208 19.0304 15.6208 19.1767 15.7759L21.9112 18.6746L25.1309 15.2615L26.1914 16.3857L22.1767 20.6415C22.0304 20.7966 21.7927 20.7966 21.6464 20.6415L18.9119 17.7428L15.4424 21.4207C15.2954 21.5773 15.0584 21.5773 14.9114 21.4215Z" fill="#35C1F1"/>
<path d="M23.1399 15.0858L26.3597 18.499C26.5952 18.7486 26.9994 18.5713 26.9994 18.2175V14.8044C26.9994 14.585 26.8314 14.4069 26.6244 14.4069H23.4047C23.0709 14.4069 22.9037 14.8354 23.1399 15.0858Z" fill="#35C1F1"/>
<defs>
<linearGradient id="paint0_linear_629_29298" x1="32.9047" y1="22.3573" x2="4.839" y2="22.3573" gradientUnits="userSpaceOnUse">
<stop stop-color="#004C87"/>
<stop offset="1" stop-color="#003A70"/>
</linearGradient>
<linearGradient id="paint1_linear_629_29298" x1="30.6547" y1="19.9722" x2="2.589" y2="19.9722" gradientUnits="userSpaceOnUse">
<stop stop-color="#0068B8"/>
<stop offset="1" stop-color="#004D94"/>
</linearGradient>
<linearGradient id="paint2_linear_629_29298" x1="3.11925" y1="14.8044" x2="11.451" y2="14.8044" gradientUnits="userSpaceOnUse">
<stop stop-color="#28AFEA"/>
<stop offset="1" stop-color="#0B88DA"/>
</linearGradient>
</defs>
</svg>

<svg width="36" height="39" fill="none" xmlns="http://www.w3.org/2000/svg"><path d="M5.25 10.432H31.5c.829 0 1.5.711 1.5 1.59v20.67c0 .88-.671 1.591-1.5 1.591h-21c-2.9 0-5.25-2.492-5.25-5.565V10.432Z" fill="url(#a)"/><path d="M3 8.047h26.25c.829 0 1.5.711 1.5 1.59v20.67c0 .88-.671 1.59-1.5 1.59h-21c-2.9 0-5.25-2.49-5.25-5.564V8.046Z" fill="url(#b)"/><path d="M8.25 20.767h1.5c.829 0 1.5-.711 1.5-1.59V4.867c0-.88-.671-1.59-1.5-1.59h-1.5C5.35 3.276 3 5.766 3 8.841v17.49c0-3.073 2.35-5.565 5.25-5.565Z" fill="url(#c)"/><path d="M13.875 24.742h14.25c.207 0 .375.179.375.398v.795c0 .22-.168.398-.375.398h-14.25c-.207 0-.375-.178-.375-.398v-.795c0-.22.168-.398.375-.398Zm1.036-3.32-.53-.563a.415.415 0 0 1 0-.562l4.265-4.521a.36.36 0 0 1 .53 0l2.735 2.899 3.22-3.414 1.06 1.125-4.014 4.256a.36.36 0 0 1-.53 0l-2.735-2.9-3.47 3.679a.36.36 0 0 1-.53 0Z" fill="#35C1F1"/><path d="m23.14 15.086 3.22 3.413c.235.25.64.072.64-.281v-3.414a.388.388 0 0 0-.376-.397h-3.22c-.333 0-.5.428-.264.679Z" fill="#35C1F1"/><defs><linearGradient id="a" x1="32.905" y1="22.357" x2="4.839" y2="22.357" gradientUnits="userSpaceOnUse"><stop stop-color="#004C87"/><stop offset="1" stop-color="#003A70"/></linearGradient><linearGradient id="b" x1="30.655" y1="19.972" x2="2.589" y2="19.972" gradientUnits="userSpaceOnUse"><stop stop-color="#0068B8"/><stop offset="1" stop-color="#004D94"/></linearGradient><linearGradient id="c" x1="3.119" y1="14.804" x2="11.451" y2="14.804" gradientUnits="userSpaceOnUse"><stop stop-color="#28AFEA"/><stop offset="1" stop-color="#0B88DA"/></linearGradient></defs></svg>
